X: 328
T:The Rollicking Road to Boxwood
M:C
L:1/8
Q:160
C:Craig Herrity
R:Reel
N:AKA The Rambling Winegago AKA Mcgee's Least Favourite
Z:Craig Herrity
K:D
AF |:DFAd f3~ A|GBAF EDEF|DFAd fdAF|GBAF D2AF|DFAd f3~A|
GBAF GABc|dedB AFDF|1EGFE D2AF:|2EGFE DABc|:dAfA eAfA|dfaf g2fg|afge fdc
d|edcB A2Bc|
dcdB A2FA|cAeA d3~ f|gbaf efdB|1AFEF DABc:|2AFEF D2AF||%DC.
<end>
<start>
